images_sukapura_svg/cmd/sc_texttocolumns.svg

<svg viewBox="0 0 16 16" xmlns="http://www.w3.org/2000/svg" xmlns:xlink="http://www.w3.org/1999/xlink"><linearGradient id="a" gradientUnits="userSpaceOnUse" x1="30.996092" x2="30.996092" xlink:href="#c" y1="11" y2="7"/><linearGradient id="b" gradientTransform="translate(5)" gradientUnits="userSpaceOnUse" x1="11" x2="11" xlink:href="#c" y1="10" y2="6"/><linearGradient id="c" gradientTransform="translate(5)" gradientUnits="userSpaceOnUse" x1="75" x2="75" y1="3" y2="-1"><stop offset="0" stop-color="#0040dd"/><stop offset="1" stop-color="#0a84ff"/></linearGradient><path d="m3 1v2.7050781 11.2949219h4.2636719 1.4726562 5.2636719v-11.2949219-2.7050781h-3.695312-4.6093755z" fill="#fff"/><path d="m3 0c-.554 0-1 .446-1 1v2.6367188.8632812 1.5.6074219 1.8925781.5 6c0 .554.446 1 1 1h1 1 1 .9726562 1 .054688 1 .9726558 1 2 1c.554 0 1.005639-.446029 1-1v-8.3925781-.6074219-1.5-.8632812-2.6367188c0-.554-.446-1-1-1h-3.636719-.863281-3.8632812zm0 1h1.6367188 1.0585937.3046875 1 2 1 .304688 1.058593 2.636719v1.6367188 1.0683593.2949219 1 10h-5.2636719-1.4726562-4.2636719v-10-1-.2949219-1.0683593z" fill="#98989d"/><path d="m4 5v11h10c.554 0 1-.446 1-1v-8.3925781-.6074219-1z" fill="#fff" fill-opacity=".784314"/><path d="m6.0000004 9c-.554 0-1 .446-1 1v5c0 .554.446 1 1 1h2 1.9726562 1.0546874 1.972656 2c.554 0 1-.446 1-1v-5c0-.554-.446-1-1-1h-1-1-1.392578-2.2148435-1.3925781-1z" fill="#98989d"/><path d="m6.0000004 7v2h3.3925781.6074215v-2h-2.349609zm4.9999996 0v2h.607422 3.392578v-2h-1.65039zm-4.9999996 3v2h3.9726562.027343v-.5-1.5h-.214843zm4.9999996 0v1.5.5h.02734 3.972656v-2h-3.785152zm-4.9999996 3v2h3.9726562.027343v-2h-.027343zm4.9999996 0v2h.02734 3.972656v-2h-3.972656z" fill="#fff"/><path d="m5.0000004 6v4h5.9999996.214844 3.785156 1v-3.9726562-.0273438h-1zm9.9999996.2285156v.00781h-.02148c.0073-.00213.01415-.00571.02148-.00781zm-8.9999996.7714844h3.9999996v2h-3.9999996zm4.9999996 0h2 .355469 1.644531v2h-3.390625-.609375z" fill="url(#b)"/><g transform="translate(-22.996091 -6)"><g fill="url(#a)"><rect height="3" ry=".5" width="1" x="35" y="8"/><rect height="1" ry=".5" width="3" x="33" y="10"/></g><path d="m35.499115 10.493535c-2.279661-3.5000009-6.057166-4.1907549-8 0" fill="none" stroke="url(#a)" stroke-linecap="round"/></g></svg>

<?xml version="1.0" encoding="UTF-8" standalone="no"?>
<svg
   xmlns:dc="http://purl.org/dc/elements/1.1/"
   xmlns:cc="http://creativecommons.org/ns#"
   xmlns:rdf="http://www.w3.org/1999/02/22-rdf-syntax-ns#"
   xmlns:svg="http://www.w3.org/2000/svg"
   xmlns="http://www.w3.org/2000/svg"
   xmlns:xlink="http://www.w3.org/1999/xlink"
   xmlns:sodipodi="http://sodipodi.sourceforge.net/DTD/sodipodi-0.dtd"
   xmlns:inkscape="http://www.inkscape.org/namespaces/inkscape"
   viewBox="0 0 16 16"
   version="1.1"
   id="svg38"
   sodipodi:docname="sc_texttocolumns.svg"
   inkscape:version="0.92.4 (unknown)">
  <metadata
     id="metadata44">
    <rdf:RDF>
      <cc:Work
         rdf:about="">
        <dc:format>image/svg+xml</dc:format>
        <dc:type
           rdf:resource="http://purl.org/dc/dcmitype/StillImage" />
        <dc:title></dc:title>
      </cc:Work>
    </rdf:RDF>
  </metadata>
  <defs
     id="defs42">
    <linearGradient
       inkscape:collect="always"
       xlink:href="#b"
       id="linearGradient861"
       x1="30.996092"
       y1="11"
       x2="30.996092"
       y2="6.9999995"
       gradientUnits="userSpaceOnUse" />
    <linearGradient
       inkscape:collect="always"
       xlink:href="#b"
       id="linearGradient869"
       x1="30.996092"
       y1="11"
       x2="30.996092"
       y2="6.9999995"
       gradientUnits="userSpaceOnUse" />
    <linearGradient
       inkscape:collect="always"
       xlink:href="#b"
       id="linearGradient871"
       x1="30.996092"
       y1="11"
       x2="30.996092"
       y2="6.9999995"
       gradientUnits="userSpaceOnUse" />
    <linearGradient
       inkscape:collect="always"
       xlink:href="#b"
       id="linearGradient873"
       gradientUnits="userSpaceOnUse"
       gradientTransform="translate(5.0000004)"
       x1="11"
       y1="10"
       x2="11"
       y2="6" />
  </defs>
  <sodipodi:namedview
     pagecolor="#ffffff"
     bordercolor="#666666"
     borderopacity="1"
     objecttolerance="10"
     gridtolerance="10"
     guidetolerance="10"
     inkscape:pageopacity="0"
     inkscape:pageshadow="2"
     inkscape:window-width="1360"
     inkscape:window-height="714"
     id="namedview40"
     showgrid="true"
     inkscape:pagecheckerboard="true"
     inkscape:zoom="10.429825"
     inkscape:cx="12.254859"
     inkscape:cy="10.383482"
     inkscape:window-x="0"
     inkscape:window-y="28"
     inkscape:window-maximized="1"
     inkscape:current-layer="svg38">
    <inkscape:grid
       type="xygrid"
       id="grid851" />
  </sodipodi:namedview>
  <linearGradient
     id="a"
     gradientUnits="userSpaceOnUse"
     x1="-19.24444"
     x2="-19.24444"
     y1="5.428188"
     y2="-3.571812">
    <stop
       offset="0"
       stop-color="#2a9240"
       id="stop2" />
    <stop
       offset="1"
       stop-color="#32d74b"
       id="stop4" />
  </linearGradient>
  <linearGradient
     id="b"
     gradientUnits="userSpaceOnUse"
     x1="75"
     x2="75"
     y1="3"
     y2="-1"
     gradientTransform="translate(5.0000004)">
    <stop
       offset="0"
       stop-color="#0040dd"
       id="stop7" />
    <stop
       offset="1"
       stop-color="#0a84ff"
       id="stop9" />
  </linearGradient>
  <path
     style="fill:#ffffff"
     d="M 3,1 V 3.7050781 15 H 7.2636719 8.7363281 14 V 3.7050781 1 H 10.304688 5.6953125 Z"
     id="path841"
     inkscape:connector-curvature="0"
     sodipodi:nodetypes="ccccccccccc" />
  <path
     style="fill:#98989d;fill-opacity:1"
     d="M 3,0 C 2.446,0 2,0.446 2,1 V 3.6367188 4.5 6 6.6074219 8.5 9 15 c 0,0.554 0.446,1 1,1 h 1 1 1 0.9726562 1 0.054688 1 H 10 h 1 2 1 c 0.554,0 1.005639,-0.446029 1,-1 V 6.6074219 6 4.5 3.6367188 1 C 15,0.446 14.554,0 14,0 H 10.363281 9.5 5.6367188 Z M 3,1 H 4.6367188 5.6953125 6 7 9 10 10.304688 11.363281 14 V 2.6367188 3.7050781 4 5 15 H 8.7363281 7.2636719 3 V 5 4 3.7050781 2.6367188 Z"
     id="path838"
     inkscape:connector-curvature="0"
     sodipodi:nodetypes="ssccccccssccccccccccssccccsscccsccccccccccccccccccccccc" />
  <path
     style="fill:#ffffff;fill-opacity:0.78431373;stroke:none"
     d="m 4,5 v 11 h 10 c 0.554,0 1,-0.446 1,-1 V 6.6074219 6 5 Z"
     id="path861"
     inkscape:connector-curvature="0"
     sodipodi:nodetypes="ccsscccc" />
  <path
     d="m 6.0000004,9 c -0.554,0 -1,0.446 -1,1 v 5 c 0,0.554 0.446,1 1,1 h 2 H 9.9726566 11.027344 13 15 c 0.554,0 1,-0.446 1,-1 V 10 C 16,9.446 15.554,9 15,9 h -1 -1 -1.392578 -2.2148435 -1.3925781 -1 z"
     id="path16"
     inkscape:connector-curvature="0"
     style="fill:#98989d" />
  <path
     d="M 6.0000004,7 V 9 H 9.3925785 10 V 7 H 7.650391 Z M 11,7 V 9 H 11.607422 15 V 7 h -1.65039 z m -4.9999996,3 v 2 h 3.9726562 0.027343 V 11.5 10 H 9.7851566 Z M 11,10 v 1.5 0.5 h 0.02734 3.972656 v -2 h -3.785152 z m -4.9999996,3 v 2 h 3.9726562 0.027343 V 13 H 9.9726566 Z M 11,13 v 2 h 0.02734 3.972656 V 13 H 11.02734 Z"
     id="path18"
     inkscape:connector-curvature="0"
     style="fill:#ffffff" />
  <path
     d="m 5.0000004,6 v 4 H 11 11.214844 15 16 V 6.0273438 6 H 15 Z M 15,6.2285156 v 0.00781 h -0.02148 c 0.0073,-0.00213 0.01415,-0.00571 0.02148,-0.00781 z M 6.0000004,7 H 10 V 9 H 6.0000004 Z M 11,7 H 13 13.355469 15 V 9 H 11.609375 11 Z"
     id="path20"
     style="fill:url(#linearGradient873)"
     inkscape:connector-curvature="0" />
  <g
     transform="translate(-22.996091,-5.9999997)"
     id="g30">
    <g
       style="fill:#0040dd"
       id="g26">
      <rect
         height="3"
         ry="0.5"
         width="1"
         x="35"
         y="8"
         id="rect22"
         style="stroke:none;fill-opacity:1;fill:url(#linearGradient871)" />
      <rect
         height="1"
         ry="0.5"
         width="3"
         x="33"
         y="10"
         id="rect24"
         style="stroke:none;fill-opacity:1;fill:url(#linearGradient869)" />
    </g>
    <path
       style="fill:none;stroke:url(#linearGradient861);stroke-linecap:round"
       inkscape:connector-curvature="0"
       d="m 35.499115,10.493535 c -2.279661,-3.5000009 -6.057166,-4.1907549 -8,0"
       id="path28" />
  </g>
</svg>
